packages/core/src/svgs/masq.svg

<svg width="24" height="24" viewBox="0 0 24 24" fill="none" xmlns="http://www.w3.org/2000/svg">
<g clip-path="url(#clip0_31_13523)">
<path d="M0 0H24V24H0V0Z" fill="url(#paint0_linear_31_13523)"/>
<path d="M16.6112 6.54845C14.1898 4.10559 9.80977 4.10559 7.38834 6.54845C4.96691 8.99131 4.96691 13.3327 7.38834 15.7799L9.42834 17.4856V15.9213C9.42834 15.0299 9.91262 13.5256 11.2841 12.3042C12.2111 11.4802 13.1454 10.6645 14.0869 9.85702L14.1426 9.96845L12.0298 11.9999C11.6012 12.557 10.7441 14.027 10.7441 15.4542C10.7441 17.0013 11.3269 18.5056 12.3426 19.7142L16.6112 15.4027C17.7738 14.2225 18.4255 12.6323 18.4255 10.9756C18.4255 9.3189 17.7738 7.72869 16.6112 6.54845Z" fill="url(#paint1_linear_31_13523)"/>
</g>
<defs>
<linearGradient id="paint0_linear_31_13523" x1="12" y1="0" x2="12" y2="24" gradientUnits="userSpaceOnUse">
<stop stop-color="#00C0FF"/>
<stop offset="1" stop-color="#0188FE"/>
</linearGradient>
<linearGradient id="paint1_linear_31_13523" x1="6.53977" y1="7.23845" x2="16.0583" y2="15.9127" gradientUnits="userSpaceOnUse">
<stop offset="0.49" stop-color="#F4FBFF"/>
<stop offset="0.69" stop-color="#D2EEFF"/>
</linearGradient>
<clipPath id="clip0_31_13523">
<rect width="24" height="24" fill="white"/>
</clipPath>
</defs>
</svg>

<svg xmlns="http://www.w3.org/2000/svg" width="24" height="24" fill="none" viewBox="0 0 24 24"><g clip-path="url(#a)"><path fill="url(#b)" d="M0 0h24v24H0z"/><path fill="url(#c)" d="M16.611 6.548c-2.421-2.442-6.801-2.442-9.223 0-2.421 2.443-2.421 6.785 0 9.232l2.04 1.706V15.92c0-.891.485-2.395 1.856-3.617a210 210 0 0 1 2.803-2.447l.056.111L12.03 12c-.429.557-1.286 2.027-1.286 3.454 0 1.547.583 3.052 1.599 4.26l4.268-4.311a6.31 6.31 0 0 0 0-8.855"/></g><defs><linearGradient id="b" x1="12" x2="12" y1="0" y2="24" gradientUnits="userSpaceOnUse"><stop stop-color="#00C0FF"/><stop offset="1" stop-color="#0188FE"/></linearGradient><linearGradient id="c" x1="6.54" x2="16.058" y1="7.238" y2="15.913" gradientUnits="userSpaceOnUse"><stop offset=".49" stop-color="#F4FBFF"/><stop offset=".69" stop-color="#D2EEFF"/></linearGradient><clipPath id="a"><path fill="#fff" d="M0 0h24v24H0z"/></clipPath></defs></svg>
